icon-themes/breeze_svg/sfx2/res/symphony/open_more.svg

<svg viewBox="0 0 14 16" xmlns="http://www.w3.org/2000/svg"><path d="m7 2a1 1 0 0 0 -1 1 1 1 0 0 0 1 1 1 1 0 0 0 1-1 1 1 0 0 0 -1-1zm0 5a1 1 0 0 0 -1 1 1 1 0 0 0 1 1 1 1 0 0 0 1-1 1 1 0 0 0 -1-1zm0 5a1 1 0 0 0 -1 1 1 1 0 0 0 1 1 1 1 0 0 0 1-1 1 1 0 0 0 -1-1z" fill="#4d4d4d"/></svg>

<svg viewBox="0 0 14 16" xmlns="http://www.w3.org/2000/svg">
  <path
     style="fill:#4d4d4d"
     d="M 7,2 A 1,1 0 0 0 6,3 1,1 0 0 0 7,4 1,1 0 0 0 8,3 1,1 0 0 0 7,2 Z M 7,7 A 1,1 0 0 0 6,8 1,1 0 0 0 7,9 1,1 0 0 0 8,8 1,1 0 0 0 7,7 Z m 0,5 a 1,1 0 0 0 -1,1 1,1 0 0 0 1,1 1,1 0 0 0 1,-1 1,1 0 0 0 -1,-1 z"
     />
</svg>
